X:31
T:Frost is All Over
M:6/8
R:reel
C:Traditional
K:D
ADD DFA | AAd (B/d/B)A | ABA F2F | GFG EFG |
ADD DFA | AAd (B/d/B)A | ABA FEE |[1 EDD D3 :|[2 EDD D2e |]
|: fdd ede | fdd d2e | fef def | g2g efg |
efe BAA | AdA F2A | (A/B/A)A FEE |[1 EDD D2 e :|[2 EDD D3 |]

